src/images/partners/fundamenta.svg

<?xml version="1.0" encoding="UTF-8" standalone="no"?>
<!DOCTYPE svg PUBLIC "-//W3C//DTD SVG 1.1//EN" "http://www.w3.org/Graphics/SVG/1.1/DTD/svg11.dtd">
<svg version="1.1" xmlns="http://www.w3.org/2000/svg" xmlns:xlink="http://www.w3.org/1999/xlink" preserveAspectRatio="xMidYMid meet" viewBox="0 0 709 73" width="709" height="73"><defs><path d="M7.51 66.16L108.67 66.16L108.67 7.94L7.51 7.94L7.51 66.16ZM37.16 14.41L79.02 14.41L79.02 27.35L37.16 27.35L37.16 14.41ZM59.83 30.59L101.69 30.59L101.69 43.52L59.83 43.52L59.83 30.59ZM14.48 30.59L56.34 30.59L56.34 43.52L14.48 43.52L14.48 30.59ZM37.16 46.76L79.02 46.76L79.02 59.7L37.16 59.7L37.16 46.76Z" id="dwqckgnWE"></path><path d="M135.93 7.95L135.93 66.16L147.55 66.16L147.55 42.32L166.97 42.32L166.97 32.25L147.55 32.25L147.55 18.02L167.91 18.02L167.91 7.95L135.93 7.95Z" id="aOEP1a91O"></path><path d="M203.77 66.16L203.77 61.76C203.67 61.76 203.61 61.76 203.6 61.76C200.46 65.77 196.47 67.58 192.14 67.58C180.86 67.58 172.21 62.07 172.21 48.14C172.21 46.44 172.21 37.89 172.21 22.5L183.49 22.5C183.49 36.05 183.49 43.57 183.49 45.08C183.49 53.57 186.55 57.98 193.34 57.98C199.87 57.98 202.84 52.79 202.84 45.16C202.84 43.65 202.84 36.09 202.84 22.5L214.12 22.5L214.12 66.16L203.77 66.16Z" id="bya3p9XVI"></path><path d="M253.06 66.16C253.06 52.99 253.06 45.68 253.06 44.21C253.06 35.32 249.92 30.6 243.56 30.6C240.08 30.6 233.8 32.72 233.8 42.32C233.8 43.91 233.8 51.86 233.8 66.16L222.51 66.16L222.51 22.5L232.95 22.5C232.95 24.77 232.95 26.03 232.95 26.28C236.68 22.89 240.5 21.01 245.93 21.01C252.04 21.01 264.34 24.55 264.34 40.36C264.34 42.08 264.34 50.68 264.34 66.16L253.06 66.16Z" id="b4Rx9VgqwG"></path><path d="M309.28 44.29C309.28 37.06 303.26 30.6 295.28 30.6C288.16 30.6 281.45 36.74 281.45 43.98C281.45 51.68 287.56 57.98 295.37 57.98C303.01 57.98 309.28 51.76 309.28 44.29M309.37 66.16L309.37 60.81C309.27 60.81 309.21 60.81 309.2 60.81C306.15 65.22 300.38 67.58 294.18 67.58C281.03 67.58 270.17 57.35 270.17 44.37C270.17 30.53 281.96 21 294.44 21C300.12 21 304.28 22.5 308.44 26.35C308.44 25.13 308.44 18.99 308.44 7.95L319.72 7.95L319.72 66.16L309.37 66.16Z" id="buHIfCyqB"></path><path d="M364.27 44.21C364.27 36.58 358.59 30.6 350.44 30.6C342.55 30.6 336.53 36.74 336.53 44.53C336.53 51.84 342.55 57.98 350.53 57.98C358.76 57.98 364.27 51.68 364.27 44.21M364.61 66.16C364.61 62.9 364.61 61.09 364.61 60.73C360.88 64.82 353.92 67.57 348.07 67.57C334.83 67.57 325.24 57.27 325.24 44.05C325.24 31.39 335.17 21 348.83 21C355.45 21 361.98 24.62 364.44 28.01C364.46 28.01 364.51 28.01 364.61 28.01L364.61 22.5L374.96 22.5L374.96 66.16L364.61 66.16Z" id="arqNi4eyy"></path><path d="M442.45 66.16C442.45 51.43 442.45 43.25 442.45 41.62C442.45 34.69 439.57 30.6 433.88 30.6C430.06 30.6 424.04 32.26 424.04 42.24C424.04 43.84 424.04 51.81 424.04 66.16L412.75 66.16C412.75 51.43 412.75 43.25 412.75 41.62C412.75 35.09 409.62 30.6 403.42 30.6C397.39 30.6 394.34 34.14 394.34 43.9C394.34 45.38 394.34 52.8 394.34 66.16L383.06 66.16L383.06 22.5L393.41 22.5L393.41 26.19C393.51 26.19 393.56 26.19 393.57 26.19C395.87 22.81 400.37 21.01 405.88 21.01C411.56 21.01 416.4 23.45 419.45 27.85C423.27 22.89 428.28 21.01 434.65 21.01C444.65 21.01 453.74 26.51 453.74 39.89C453.74 41.64 453.74 50.4 453.74 66.16L442.45 66.16Z" id="e1UmlP3kJl"></path><path d="M497.17 40.59C496.07 34.3 491.4 30.6 484.36 30.6C478.17 30.6 472.91 33.91 471.12 40.59C476.33 40.59 491.96 40.59 497.17 40.59ZM471.46 49.01C472.32 52.87 477.49 57.98 484.45 57.98C489.11 57.98 493.01 56.25 495.31 52.39C496.5 52.39 506 52.39 507.19 52.39C504.13 61.21 494.46 67.58 484.45 67.58C470.28 67.58 459.58 57.35 459.58 44.45C459.58 31.54 470.02 21.01 484.36 21.01C498.02 21.01 508.71 30.99 508.71 43.74C508.71 45.39 508.46 47.12 508.03 49.01C500.72 49.01 478.78 49.01 471.46 49.01Z" id="f1NonrGWdc"></path><path d="M545.2 66.16C545.2 52.99 545.2 45.68 545.2 44.21C545.2 35.32 542.06 30.6 535.7 30.6C532.22 30.6 525.94 32.72 525.94 42.32C525.94 43.91 525.94 51.86 525.94 66.16L514.65 66.16L514.65 22.5L525.09 22.5C525.09 24.77 525.09 26.03 525.09 26.28C528.82 22.89 532.64 21.01 538.07 21.01C544.18 21.01 556.48 24.55 556.48 40.36C556.48 42.08 556.48 50.68 556.48 66.16L545.2 66.16Z" id="d5ZJSD0r0F"></path><path d="M566.32 7.95L566.32 22.5L560.81 22.5L560.81 31.78L566.32 31.78L566.32 66.16L577.61 66.16L577.61 31.78L584.4 31.78L584.4 22.5L577.61 22.5L577.61 7.95L566.32 7.95Z" id="d1TC09E1Ms"></path><path d="M623.9 44.75C623.9 37.12 618.21 31.14 610.07 31.14C602.18 31.14 596.15 37.27 596.15 45.06C596.15 52.38 602.18 58.51 610.15 58.51C618.38 58.51 623.9 52.22 623.9 44.75M624.24 66.69C624.24 63.44 624.24 61.63 624.24 61.27C620.51 65.36 613.55 68.11 607.69 68.11C594.46 68.11 584.87 57.81 584.87 44.59C584.87 31.92 594.8 21.54 608.46 21.54C615.07 21.54 621.61 25.16 624.07 28.54C624.08 28.54 624.14 28.54 624.24 28.54L624.24 23.04L634.59 23.04L634.59 66.69L624.24 66.69Z" id="fedZZClWR"></path></defs><g><g><g><use xlink:href="#dwqckgnWE" opacity="1" fill="#231f20" fill-opacity="1"></use><g><use xlink:href="#dwqckgnWE" opacity="1" fill-opacity="0" stroke="#000000" stroke-width="1" stroke-opacity="0"></use></g></g><g><use xlink:href="#aOEP1a91O" opacity="1" fill="#231f20" fill-opacity="1"></use><g><use xlink:href="#aOEP1a91O" opacity="1" fill-opacity="0" stroke="#000000" stroke-width="1" stroke-opacity="0"></use></g></g><g><use xlink:href="#bya3p9XVI" opacity="1" fill="#231f20" fill-opacity="1"></use><g><use xlink:href="#bya3p9XVI" opacity="1" fill-opacity="0" stroke="#000000" stroke-width="1" stroke-opacity="0"></use></g></g><g><use xlink:href="#b4Rx9VgqwG" opacity="1" fill="#231f20" fill-opacity="1"></use><g><use xlink:href="#b4Rx9VgqwG" opacity="1" fill-opacity="0" stroke="#000000" stroke-width="1" stroke-opacity="0"></use></g></g><g><use xlink:href="#buHIfCyqB" opacity="1" fill="#231f20" fill-opacity="1"></use><g><use xlink:href="#buHIfCyqB" opacity="1" fill-opacity="0" stroke="#000000" stroke-width="1" stroke-opacity="0"></use></g></g><g><use xlink:href="#arqNi4eyy" opacity="1" fill="#231f20" fill-opacity="1"></use><g><use xlink:href="#arqNi4eyy" opacity="1" fill-opacity="0" stroke="#000000" stroke-width="1" stroke-opacity="0"></use></g></g><g><use xlink:href="#e1UmlP3kJl" opacity="1" fill="#231f20" fill-opacity="1"></use><g><use xlink:href="#e1UmlP3kJl" opacity="1" fill-opacity="0" stroke="#000000" stroke-width="1" stroke-opacity="0"></use></g></g><g><use xlink:href="#f1NonrGWdc" opacity="1" fill="#231f20" fill-opacity="1"></use><g><use xlink:href="#f1NonrGWdc" opacity="1" fill-opacity="0" stroke="#000000" stroke-width="1" stroke-opacity="0"></use></g></g><g><use xlink:href="#d5ZJSD0r0F" opacity="1" fill="#231f20" fill-opacity="1"></use><g><use xlink:href="#d5ZJSD0r0F" opacity="1" fill-opacity="0" stroke="#000000" stroke-width="1" stroke-opacity="0"></use></g></g><g><use xlink:href="#d1TC09E1Ms" opacity="1" fill="#231f20" fill-opacity="1"></use><g><use xlink:href="#d1TC09E1Ms" opacity="1" fill-opacity="0" stroke="#000000" stroke-width="1" stroke-opacity="0"></use></g></g><g><use xlink:href="#fedZZClWR" opacity="1" fill="#231f20" fill-opacity="1"></use><g><use xlink:href="#fedZZClWR" opacity="1" fill-opacity="0" stroke="#000000" stroke-width="1" stroke-opacity="0"></use></g></g></g></g></svg>

<svg xmlns="http://www.w3.org/2000/svg" xmlns:xlink="http://www.w3.org/1999/xlink" viewBox="0 0 709 73"><defs/><defs><path id="a" d="M7.5 66.2h101.2V7.9H7.5v58.3zm29.7-51.8H79v13H37.2v-13zm22.6 16.2h41.9v13H59.8v-13zm-45.3 0h41.8v13H14.5v-13zm22.7 16.2H79v12.9H37.2v-13z"/><path id="b" d="M136 8v58.2h11.6V42.3H167v-10h-19.4V18h20.3V8h-32z"/><path id="c" d="M203.8 66.2v-4.4h-.2c-3.1 4-7.1 5.8-11.5 5.8-11.2 0-19.9-5.5-19.9-19.5V22.5h11.3v22.6c0 8.5 3 12.9 9.8 12.9 6.6 0 9.5-5.2 9.5-12.8V22.5h11.3v43.7h-10.3z"/><path id="d" d="M253 66.2v-22c0-8.9-3-13.6-9.4-13.6-3.5 0-9.8 2.1-9.8 11.7v23.9h-11.3V22.5H233v3.8a18 18 0 0113-5.3c6.1 0 18.4 3.6 18.4 19.4v25.8h-11.2z"/><path id="e" d="M309.3 44.3c0-7.2-6-13.7-14-13.7-7.1 0-13.9 6.1-13.9 13.4a13.9 13.9 0 0027.9.3m0 21.9v-5.4h-.1c-3 4.4-8.8 6.8-15 6.8-13.2 0-24-10.2-24-23.2A23.8 23.8 0 01294.4 21c5.7 0 9.9 1.5 14 5.4V8h11.3v58.2h-10.3z"/><path id="f" d="M364.3 44.2c0-7.6-5.7-13.6-13.9-13.6-7.8 0-13.9 6.1-13.9 14 0 7.2 6 13.4 14 13.4 8.3 0 13.8-6.3 13.8-13.8m.3 22v-5.5c-3.7 4.1-10.7 6.9-16.5 6.9A22.7 22.7 0 01325.2 44 23 23 0 01348.8 21a21 21 0 0115.6 7h.2v-5.5H375v43.7h-10.4z"/><path id="g" d="M442.4 66.2V41.6c0-7-2.8-11-8.5-11-3.8 0-9.9 1.7-9.9 11.6v24h-11.3V41.6c0-6.5-3-11-9.3-11-6 0-9 3.5-9 13.3v22.3H383V22.5h10.3v3.7h.2c2.3-3.4 6.8-5.2 12.3-5.2a16 16 0 0113.6 6.9c3.8-5 8.8-6.9 15.1-6.9 10 0 19.1 5.5 19.1 18.9v26.3h-11.3z"/><path id="h" d="M497.2 40.6c-1.1-6.3-5.8-10-12.8-10a13 13 0 00-13.3 10h26zM471.5 49c.8 3.9 6 9 13 9 4.6 0 8.5-1.8 10.8-5.6h11.9a24.4 24.4 0 01-22.8 15.2c-14.1 0-24.8-10.2-24.8-23.1 0-13 10.4-23.5 24.8-23.5 13.6 0 24.3 10 24.3 22.7 0 1.7-.2 3.4-.7 5.3h-36.5z"/><path id="i" d="M545.2 66.2v-22c0-8.9-3.1-13.6-9.5-13.6-3.5 0-9.8 2.1-9.8 11.7v23.9h-11.3V22.5h10.5v3.8a18 18 0 0113-5.3c6 0 18.4 3.6 18.4 19.4v25.8h-11.3z"/><path id="j" d="M566.3 8v14.5h-5.5v9.3h5.5v34.4h11.3V31.8h6.8v-9.3h-6.8V7.9h-11.3z"/><path id="k" d="M623.9 44.8c0-7.7-5.7-13.7-13.8-13.7-8 0-14 6.2-14 14 0 7.3 6 13.4 14 13.4 8.3 0 13.8-6.3 13.8-13.8m.3 22v-5.4c-3.7 4-10.7 6.8-16.5 6.8a22.6 22.6 0 01-22.8-23.5 23 23 0 0123.6-23 21 21 0 0115.6 7h.1V23h10.4v43.7h-10.4z"/></defs><use fill="#231f20" xlink:href="#a"/><use fill-opacity="0" stroke="#000" stroke-opacity="0" xlink:href="#a"/><use fill="#231f20" xlink:href="#b"/><use fill-opacity="0" stroke="#000" stroke-opacity="0" xlink:href="#b"/><use fill="#231f20" xlink:href="#c"/><use fill-opacity="0" stroke="#000" stroke-opacity="0" xlink:href="#c"/><use fill="#231f20" xlink:href="#d"/><use fill-opacity="0" stroke="#000" stroke-opacity="0" xlink:href="#d"/><use fill="#231f20" xlink:href="#e"/><use fill-opacity="0" stroke="#000" stroke-opacity="0" xlink:href="#e"/><use fill="#231f20" xlink:href="#f"/><use fill-opacity="0" stroke="#000" stroke-opacity="0" xlink:href="#f"/><g><use fill="#231f20" xlink:href="#g"/><use fill-opacity="0" stroke="#000" stroke-opacity="0" xlink:href="#g"/></g><g><use fill="#231f20" xlink:href="#h"/><use fill-opacity="0" stroke="#000" stroke-opacity="0" xlink:href="#h"/></g><g><use fill="#231f20" xlink:href="#i"/><use fill-opacity="0" stroke="#000" stroke-opacity="0" xlink:href="#i"/></g><g><use fill="#231f20" xlink:href="#j"/><use fill-opacity="0" stroke="#000" stroke-opacity="0" xlink:href="#j"/></g><g><use fill="#231f20" xlink:href="#k"/><use fill-opacity="0" stroke="#000" stroke-opacity="0" xlink:href="#k"/></g></svg>
